svg/nzbget.svg

<svg xmlns="http://www.w3.org/2000/svg" xml:space="preserve" viewBox="0 0 512 512"><linearGradient id="nzbget_svg__a" x1="256" x2="256" y1="566" y2="1078" gradientTransform="translate(0 -566)" gradientUnits="userSpaceOnUse"><stop offset="0" style="stop-color:#dedede"/><stop offset="1" style="stop-color:#333"/></linearGradient><circle cx="256" cy="256" r="256" style="fill:url(#nzbget_svg__a)"/><linearGradient id="nzbget_svg__b" x1="256" x2="256" y1="588.9" y2="1055.1" gradientTransform="translate(0 -566)" gradientUnits="userSpaceOnUse"><stop offset="0" style="stop-color:#333"/><stop offset="1" style="stop-color:#fdfcfc"/></linearGradient><circle cx="256" cy="256" r="233.1" style="fill:url(#nzbget_svg__b)"/><linearGradient id="nzbget_svg__c" x1="256" x2="256" y1="598" y2="1041.4" gradientTransform="translate(0 -566)" gradientUnits="userSpaceOnUse"><stop offset="0" style="stop-color:#5ff65b"/><stop offset="1" style="stop-color:#138f10"/></linearGradient><circle cx="256" cy="253.7" r="221.7" style="fill:url(#nzbget_svg__c)"/><radialGradient id="nzbget_svg__d" cx="-740.93" cy="134.635" r="2.286" gradientTransform="matrix(0 57 -93.9631 0 12906.685 42633)" gradientUnits="userSpaceOnUse"><stop offset="0" style="stop-color:#dbf8db"/><stop offset=".417" style="stop-color:#6ce26a"/><stop offset="1" style="stop-color:#6ce26a;stop-opacity:0"/></radialGradient><circle cx="256" cy="253.7" r="221.7" style="fill:url(#nzbget_svg__d)"/><linearGradient id="nzbget_svg__e" x1="256" x2="256" y1="598" y2="1041.4" gradientTransform="translate(0 -566)" gradientUnits="userSpaceOnUse"><stop offset="0" style="stop-color:#2eb12b"/><stop offset="1" style="stop-color:#87df85"/></linearGradient><path d="M256 466.3c117.4 0 212.6-95.2 212.6-212.6S373.4 41.1 256 41.1 43.4 136.3 43.4 253.7 138.6 466.3 256 466.3m0 9.1c122.5 0 221.7-99.3 221.7-221.7S378.5 32 256 32C133.6 32 34.3 131.3 34.3 253.7c0 122.5 99.3 221.7 221.7 221.7" style="fill-rule:evenodd;clip-rule:evenodd;fill:url(#nzbget_svg__e)"/><path d="M121.1 333.7c3.8 0 6.9 3.1 6.9 6.9s-3.1 6.9-6.9 6.9-6.9-3.1-6.9-6.9 3.1-6.9 6.9-6.9m276.6 36.6c2.5 0 4.6 2.1 4.6 4.6s-2.1 4.6-4.6 4.6-4.6-2.1-4.6-4.6 2.1-4.6 4.6-4.6M368 333.7c3.8 0 6.9 3.1 6.9 6.9s-3.1 6.9-6.9 6.9-6.9-3.1-6.9-6.9 3.1-6.9 6.9-6.9m-217.1 36.6c2.5 0 4.6 2.1 4.6 4.6s-2.1 4.6-4.6 4.6-4.6-2.1-4.6-4.6 2.1-4.6 4.6-4.6m224 13.7c2.5 0 4.6 2.1 4.6 4.6s-2.1 4.6-4.6 4.6-4.6-2.1-4.6-4.6 2.1-4.6 4.6-4.6M116.6 274.2c3.8 0 6.9 3.1 6.9 6.9s-3.1 6.9-6.9 6.9-6.9-3.1-6.9-6.9 3.1-6.9 6.9-6.9m45.7 68.7c6.3 0 11.4 5.1 11.4 11.4s-5.1 11.4-11.4 11.4-11.4-5.1-11.4-11.4 5.1-11.4 11.4-11.4m-41.2 36.6c6.3 0 11.4 5.1 11.4 11.4s-5.1 11.4-11.4 11.4-11.4-5.1-11.4-11.4 5.1-11.4 11.4-11.4m96 41.1c6.3 0 11.4 5.1 11.4 11.4s-5.1 11.4-11.4 11.4-11.4-5.1-11.4-11.4 5.1-11.4 11.4-11.4m54.9 18.2c3.8 0 6.9 3.1 6.9 6.9s-3.1 6.9-6.9 6.9-6.9-3.1-6.9-6.9 3.1-6.9 6.9-6.9m68.6-68.5c6.3 0 11.4 5.1 11.4 11.4s-5.1 11.4-11.4 11.4-11.4-5.1-11.4-11.4 5.1-11.4 11.4-11.4m-169.2 18.2c11.4 0 20.6 9.2 20.6 20.6s-9.2 20.6-20.6 20.6-20.6-9.2-20.6-20.6 9.2-20.6 20.6-20.6M310.9 416c7.6 0 13.7 6.1 13.7 13.7s-6.1 13.7-13.7 13.7-13.7-6.1-13.7-13.7 6.1-13.7 13.7-13.7M93.7 301.7c1.3 0 2.3 1 2.3 2.3s-1 2.3-2.3 2.3-2.3-1-2.3-2.3 1-2.3 2.3-2.3m269.7 64c1.3 0 2.3 1 2.3 2.3s-1 2.3-2.3 2.3-2.3-1-2.3-2.3 1-2.3 2.3-2.3m32-82.3c1.3 0 2.3 1 2.3 2.3s-1 2.3-2.3 2.3-2.3-1-2.3-2.3 1-2.3 2.3-2.3m-269.7 82.3c1.3 0 2.3 1 2.3 2.3s-1 2.3-2.3 2.3-2.3-1-2.3-2.3 1-2.3 2.3-2.3m278.9-50.3c1.3 0 2.3 1 2.3 2.3s-1 2.3-2.3 2.3-2.3-1-2.3-2.3 1-2.3 2.3-2.3M349.7 352c1.3 0 2.3 1 2.3 2.3s-1 2.3-2.3 2.3-2.3-1-2.3-2.3 1-2.3 2.3-2.3m-217.1-41.2c2.5 0 4.6 2.1 4.6 4.6s-2.1 4.6-4.6 4.6-4.6-2.1-4.6-4.6 2.1-4.6 4.6-4.6m173.7 77.7c2.5 0 4.6 2.1 4.6 4.6s-2.1 4.6-4.6 4.6-4.6-2.1-4.6-4.6 2.1-4.6 4.6-4.6M96 356.5c2.5 0 4.6 2.1 4.6 4.6s-2.1 4.6-4.6 4.6-4.6-2.1-4.6-4.6 2.1-4.6 4.6-4.6m-4.6-27.3c5 0 9.1 4.1 9.1 9.1s-4.1 9.1-9.1 9.1-9.1-4.1-9.1-9.1 4.1-9.1 9.1-9.1m308.6 4.5c3.8 0 6.9 3.1 6.9 6.9s-3.1 6.9-6.9 6.9-6.9-3.1-6.9-6.9 3.1-6.9 6.9-6.9m-16-27.4c5 0 9.1 4.1 9.1 9.1s-4.1 9.1-9.1 9.1-9.1-4.1-9.1-9.1 4.1-9.1 9.1-9.1m41.1-13.8c2.5 0 4.6 2.1 4.6 4.6s-2.1 4.6-4.6 4.6-4.6-2.1-4.6-4.6 2.1-4.6 4.6-4.6m6.9 41.2c1.3 0 2.3 1 2.3 2.3s-1 2.3-2.3 2.3-2.3-1-2.3-2.3 1-2.3 2.3-2.3m-73.1 73.1c3.8 0 6.9 3.1 6.9 6.9s-3.1 6.9-6.9 6.9-6.9-3.1-6.9-6.9 3.1-6.9 6.9-6.9" style="opacity:.4;fill:#fff"/><circle cx="146.3" cy="246.9" r="4.6" style="opacity:.1;fill:#fff"/><path d="M210.3 155.4c0-2.5 2-4.6 4.6-4.6h82.3c2.5 0 4.6 2 4.6 4.6v13.7c0 2.5-2 4.6-4.6 4.6h-82.3c-2.5 0-4.6-2-4.6-4.6z" style="fill:#339731"/><path d="M210.3 128c0-2.5 2-4.6 4.6-4.6h82.3c2.5 0 4.6 2 4.6 4.6v4.6c0 2.5-2 4.6-4.6 4.6h-82.3c-2.5 0-4.6-2-4.6-4.6z" style="fill:#47ca44"/><path d="M214.9 187.4h82.3c2.5 0 4.6 2 4.6 4.6v22.9c0 2.5-2 4.6-4.6 4.6h-82.3c-2.5 0-4.6-2-4.6-4.6V192c0-2.5 2-4.6 4.6-4.6" style="fill:#1a5219"/><linearGradient id="nzbget_svg__f" x1="256" x2="256" y1="803.7" y2="962.2" gradientTransform="translate(0 -566)" gradientUnits="userSpaceOnUse"><stop offset="0" style="stop-color:#1a5219"/><stop offset="1" style="stop-color:#000"/></linearGradient><path d="M210.3 242.3c0-2.5 2-4.6 4.6-4.6h82.3c2.5 0 4.6 2 4.6 4.6V288H355c4 0 6.1 4.8 3.3 7.7L265.9 392c-5.4 5.6-14.4 5.6-19.8 0l-92.4-96.2c-2.8-2.9-.7-7.7 3.3-7.7h53.3z" style="fill:url(#nzbget_svg__f)"/><linearGradient id="nzbget_svg__g" x1="256" x2="256" y1="860.857" y2="962.197" gradientTransform="translate(0 -566)" gradientUnits="userSpaceOnUse"><stop offset="0" style="stop-color:#fff;stop-opacity:0"/><stop offset="1" style="stop-color:#fff;stop-opacity:.54"/></linearGradient><path d="M214.9 228.6h82.3c7.6 0 13.7 6.1 13.7 13.7v36.6H355c12.1 0 18.3 14.5 9.9 23.2l-92.4 96.2c-9 9.4-24 9.4-33 0l-92.4-96.2c-8.4-8.7-2.2-23.2 9.9-23.2h44.1v-36.6c0-7.6 6.2-13.7 13.8-13.7m-4.6 59.4H157c-4 0-6.1 4.8-3.3 7.7l92.4 96.2c5.4 5.6 14.4 5.6 19.8 0l92.4-96.2c2.8-2.9.7-7.7-3.3-7.7h-53.3v-45.7c0-2.5-2-4.6-4.6-4.6h-82.3c-2.5 0-4.6 2-4.6 4.6V288z" style="fill-rule:evenodd;clip-rule:evenodd;fill:url(#nzbget_svg__g)"/></svg>

<?xml version="1.0" encoding="utf-8"?>
<!-- Generator: Adobe Illustrator 28.2.0, SVG Export Plug-In . SVG Version: 6.00 Build 0)  -->
<svg version="1.1" id="Layer_1" xmlns="http://www.w3.org/2000/svg" xmlns:xlink="http://www.w3.org/1999/xlink" x="0px" y="0px"
	 viewBox="0 0 512 512" style="enable-background:new 0 0 512 512;" xml:space="preserve">
<style type="text/css">
	.st0{fill:url(#SVGID_1_);}
	.st1{fill:url(#SVGID_00000085236704371460619050000004363336066192274850_);}
	.st2{fill:url(#SVGID_00000176753763601336873010000007683376623772899489_);}
	.st3{fill:url(#SVGID_00000166645912862176404420000006302962093387551918_);}
	.st4{fill-rule:evenodd;clip-rule:evenodd;fill:url(#SVGID_00000179621716084946332780000000437358351236560556_);}
	.st5{opacity:0.4;fill:#FFFFFF;enable-background:new    ;}
	.st6{opacity:0.1;fill:#FFFFFF;enable-background:new    ;}
	.st7{fill:#339731;}
	.st8{fill:#47CA44;}
	.st9{fill:#1A5219;}
	.st10{fill:url(#SVGID_00000177473787196902091880000003636851799446769056_);}
	.st11{fill-rule:evenodd;clip-rule:evenodd;fill:url(#SVGID_00000040554397647981455080000009407593503692681093_);}
</style>
<linearGradient id="SVGID_1_" gradientUnits="userSpaceOnUse" x1="256" y1="566" x2="256" y2="1078" gradientTransform="matrix(1 0 0 1 0 -566)">
	<stop  offset="0" style="stop-color:#DEDEDE"/>
	<stop  offset="1" style="stop-color:#333333"/>
</linearGradient>
<circle class="st0" cx="256" cy="256" r="256"/>
<linearGradient id="SVGID_00000000936781301806232230000014153260331300113052_" gradientUnits="userSpaceOnUse" x1="256" y1="588.9" x2="256" y2="1055.1" gradientTransform="matrix(1 0 0 1 0 -566)">
	<stop  offset="0" style="stop-color:#333333"/>
	<stop  offset="1" style="stop-color:#FDFCFC"/>
</linearGradient>
<circle style="fill:url(#SVGID_00000000936781301806232230000014153260331300113052_);" cx="256" cy="256" r="233.1"/>
<linearGradient id="SVGID_00000008854602565072495720000007441803663606253460_" gradientUnits="userSpaceOnUse" x1="256" y1="598" x2="256" y2="1041.4" gradientTransform="matrix(1 0 0 1 0 -566)">
	<stop  offset="0" style="stop-color:#5FF65B"/>
	<stop  offset="1" style="stop-color:#138F10"/>
</linearGradient>
<circle style="fill:url(#SVGID_00000008854602565072495720000007441803663606253460_);" cx="256" cy="253.7" r="221.7"/>
<radialGradient id="SVGID_00000056395142526487758400000002864508915107681719_" cx="-740.9298" cy="134.6346" r="2.2857" gradientTransform="matrix(3.490244e-15 57 -93.9631 5.753581e-15 12906.6855 42633)" gradientUnits="userSpaceOnUse">
	<stop  offset="0" style="stop-color:#DBF8DB"/>
	<stop  offset="0.4174" style="stop-color:#6CE26A"/>
	<stop  offset="1" style="stop-color:#6CE26A;stop-opacity:0"/>
</radialGradient>
<circle style="fill:url(#SVGID_00000056395142526487758400000002864508915107681719_);" cx="256" cy="253.7" r="221.7"/>
<linearGradient id="SVGID_00000068650195423814660780000006611718127922993563_" gradientUnits="userSpaceOnUse" x1="256" y1="598" x2="256" y2="1041.4" gradientTransform="matrix(1 0 0 1 0 -566)">
	<stop  offset="0" style="stop-color:#2EB12B"/>
	<stop  offset="1" style="stop-color:#87DF85"/>
</linearGradient>
<path style="fill-rule:evenodd;clip-rule:evenodd;fill:url(#SVGID_00000068650195423814660780000006611718127922993563_);" d="
	M256,466.3c117.4,0,212.6-95.2,212.6-212.6S373.4,41.1,256,41.1S43.4,136.3,43.4,253.7C43.4,371.1,138.6,466.3,256,466.3z
	 M256,475.4c122.5,0,221.7-99.3,221.7-221.7S378.5,32,256,32C133.6,32,34.3,131.3,34.3,253.7C34.3,376.2,133.6,475.4,256,475.4z"/>
<path class="st5" d="M121.1,333.7c3.8,0,6.9,3.1,6.9,6.9s-3.1,6.9-6.9,6.9s-6.9-3.1-6.9-6.9S117.3,333.7,121.1,333.7z M397.7,370.3
	c2.5,0,4.6,2.1,4.6,4.6s-2.1,4.6-4.6,4.6s-4.6-2.1-4.6-4.6S395.2,370.3,397.7,370.3z M368,333.7c3.8,0,6.9,3.1,6.9,6.9
	s-3.1,6.9-6.9,6.9s-6.9-3.1-6.9-6.9S364.2,333.7,368,333.7z M150.9,370.3c2.5,0,4.6,2.1,4.6,4.6s-2.1,4.6-4.6,4.6s-4.6-2.1-4.6-4.6
	S148.4,370.3,150.9,370.3z M374.9,384c2.5,0,4.6,2.1,4.6,4.6s-2.1,4.6-4.6,4.6s-4.6-2.1-4.6-4.6S372.4,384,374.9,384z M116.6,274.2
	c3.8,0,6.9,3.1,6.9,6.9s-3.1,6.9-6.9,6.9s-6.9-3.1-6.9-6.9S112.8,274.2,116.6,274.2z M162.3,342.9c6.3,0,11.4,5.1,11.4,11.4
	s-5.1,11.4-11.4,11.4s-11.4-5.1-11.4-11.4S156,342.9,162.3,342.9z M121.1,379.5c6.3,0,11.4,5.1,11.4,11.4s-5.1,11.4-11.4,11.4
	s-11.4-5.1-11.4-11.4S114.8,379.5,121.1,379.5z M217.1,420.6c6.3,0,11.4,5.1,11.4,11.4s-5.1,11.4-11.4,11.4s-11.4-5.1-11.4-11.4
	S210.8,420.6,217.1,420.6z M272,438.8c3.8,0,6.9,3.1,6.9,6.9s-3.1,6.9-6.9,6.9s-6.9-3.1-6.9-6.9S268.2,438.8,272,438.8z
	 M340.6,370.3c6.3,0,11.4,5.1,11.4,11.4s-5.1,11.4-11.4,11.4s-11.4-5.1-11.4-11.4S334.3,370.3,340.6,370.3z M171.4,388.5
	c11.4,0,20.6,9.2,20.6,20.6s-9.2,20.6-20.6,20.6s-20.6-9.2-20.6-20.6S160,388.5,171.4,388.5z M310.9,416c7.6,0,13.7,6.1,13.7,13.7
	s-6.1,13.7-13.7,13.7s-13.7-6.1-13.7-13.7S303.3,416,310.9,416z M93.7,301.7c1.3,0,2.3,1,2.3,2.3s-1,2.3-2.3,2.3s-2.3-1-2.3-2.3
	S92.4,301.7,93.7,301.7z M363.4,365.7c1.3,0,2.3,1,2.3,2.3s-1,2.3-2.3,2.3s-2.3-1-2.3-2.3S362.1,365.7,363.4,365.7z M395.4,283.4
	c1.3,0,2.3,1,2.3,2.3s-1,2.3-2.3,2.3s-2.3-1-2.3-2.3S394.1,283.4,395.4,283.4z M125.7,365.7c1.3,0,2.3,1,2.3,2.3s-1,2.3-2.3,2.3
	s-2.3-1-2.3-2.3S124.4,365.7,125.7,365.7z M404.6,315.4c1.3,0,2.3,1,2.3,2.3s-1,2.3-2.3,2.3s-2.3-1-2.3-2.3S403.3,315.4,404.6,315.4
	z M349.7,352c1.3,0,2.3,1,2.3,2.3s-1,2.3-2.3,2.3s-2.3-1-2.3-2.3S348.4,352,349.7,352z M132.6,310.8c2.5,0,4.6,2.1,4.6,4.6
	s-2.1,4.6-4.6,4.6s-4.6-2.1-4.6-4.6S130.1,310.8,132.6,310.8z M306.3,388.5c2.5,0,4.6,2.1,4.6,4.6s-2.1,4.6-4.6,4.6
	s-4.6-2.1-4.6-4.6S303.8,388.5,306.3,388.5z M96,356.5c2.5,0,4.6,2.1,4.6,4.6s-2.1,4.6-4.6,4.6s-4.6-2.1-4.6-4.6
	S93.5,356.5,96,356.5z M91.4,329.2c5,0,9.1,4.1,9.1,9.1s-4.1,9.1-9.1,9.1s-9.1-4.1-9.1-9.1S86.4,329.2,91.4,329.2z M400,333.7
	c3.8,0,6.9,3.1,6.9,6.9s-3.1,6.9-6.9,6.9s-6.9-3.1-6.9-6.9S396.2,333.7,400,333.7z M384,306.3c5,0,9.1,4.1,9.1,9.1s-4.1,9.1-9.1,9.1
	s-9.1-4.1-9.1-9.1S379,306.3,384,306.3z M425.1,292.5c2.5,0,4.6,2.1,4.6,4.6s-2.1,4.6-4.6,4.6s-4.6-2.1-4.6-4.6
	S422.6,292.5,425.1,292.5z M432,333.7c1.3,0,2.3,1,2.3,2.3s-1,2.3-2.3,2.3s-2.3-1-2.3-2.3S430.7,333.7,432,333.7z M358.9,406.8
	c3.8,0,6.9,3.1,6.9,6.9s-3.1,6.9-6.9,6.9s-6.9-3.1-6.9-6.9S355.1,406.8,358.9,406.8z"/>
<circle class="st6" cx="146.3" cy="246.9" r="4.6"/>
<path class="st7" d="M210.3,155.4c0-2.5,2-4.6,4.6-4.6h82.3c2.5,0,4.6,2,4.6,4.6v13.7c0,2.5-2,4.6-4.6,4.6h-82.3
	c-2.5,0-4.6-2-4.6-4.6V155.4z"/>
<path class="st8" d="M210.3,128c0-2.5,2-4.6,4.6-4.6h82.3c2.5,0,4.6,2,4.6,4.6v4.6c0,2.5-2,4.6-4.6,4.6h-82.3c-2.5,0-4.6-2-4.6-4.6
	V128z"/>
<path class="st9" d="M214.9,187.4h82.3c2.5,0,4.6,2,4.6,4.6v22.9c0,2.5-2,4.6-4.6,4.6h-82.3c-2.5,0-4.6-2-4.6-4.6V192
	C210.3,189.5,212.3,187.4,214.9,187.4z"/>
<linearGradient id="SVGID_00000108303684830461291810000001626625739657903514_" gradientUnits="userSpaceOnUse" x1="256" y1="803.7" x2="256" y2="962.2" gradientTransform="matrix(1 0 0 1 0 -566)">
	<stop  offset="0" style="stop-color:#1A5219"/>
	<stop  offset="1" style="stop-color:#000000"/>
</linearGradient>
<path style="fill:url(#SVGID_00000108303684830461291810000001626625739657903514_);" d="M210.3,242.3c0-2.5,2-4.6,4.6-4.6h82.3
	c2.5,0,4.6,2,4.6,4.6V288H355c4,0,6.1,4.8,3.3,7.7L265.9,392c-5.4,5.6-14.4,5.6-19.8,0l-92.4-96.2c-2.8-2.9-0.7-7.7,3.3-7.7h53.3
	L210.3,242.3L210.3,242.3z"/>
<linearGradient id="SVGID_00000171699921570425802250000008988396362615254923_" gradientUnits="userSpaceOnUse" x1="256" y1="860.8571" x2="256" y2="962.1966" gradientTransform="matrix(1 0 0 1 0 -566)">
	<stop  offset="0" style="stop-color:#FFFFFF;stop-opacity:0"/>
	<stop  offset="1" style="stop-color:#FFFFFF;stop-opacity:0.54"/>
</linearGradient>
<path style="fill-rule:evenodd;clip-rule:evenodd;fill:url(#SVGID_00000171699921570425802250000008988396362615254923_);" d="
	M214.9,228.6h82.3c7.6,0,13.7,6.1,13.7,13.7v36.6H355c12.1,0,18.3,14.5,9.9,23.2l-92.4,96.2c-9,9.4-24,9.4-33,0l-92.4-96.2
	c-8.4-8.7-2.2-23.2,9.9-23.2h44.1v-36.6C201.1,234.7,207.3,228.6,214.9,228.6z M210.3,288H157c-4,0-6.1,4.8-3.3,7.7l92.4,96.2
	c5.4,5.6,14.4,5.6,19.8,0l92.4-96.2c2.8-2.9,0.7-7.7-3.3-7.7h-53.3v-45.7c0-2.5-2-4.6-4.6-4.6h-82.3c-2.5,0-4.6,2-4.6,4.6V288H210.3
	z"/>
</svg>
